X: 115
T: Ships are Sailing
M: C|
L: 1/8
R: reel
K: Edor
Beed BcdB|AD (3FED AD (3FED|EDEF GFGA|(3Bcd ef gfed|
Beed BcdB|AD (3FED AD (3FED|EDEF GFGA|1 Beed e2 ed :|2\
Beed e2 ef ||
gfga bgeg|fefg afdf|gfga bgeg|fedf e2 ef|
gfga bgeg|fefg afdf|g2 ge f2 fd|1 edef  gfef :|2\
edef gfed ||
